lib/build/svg/system/raise-hand.svg

<svg aria-hidden="true" aria-label="Raise Hand" class="d-svg d-svg--system d-svg__raiseHand" viewBox="0 0 24 24"><path d="M21 7a2.5 2.5 0 00-3-2.45V4a2.5 2.5 0 00-3.17-2.41A2.509 2.509 0 0012.5 0c-1.23 0-2.25.89-2.46 2.06A2.5 2.5 0 007 4.5v5.89c-.34-.31-.76-.54-1.22-.66l-.77-.21c-.83-.23-1.7.09-2.19.83-.38.57-.4 1.31-.15 1.95l2.56 6.43A8.354 8.354 0 0013 24c4.42 0 8-3.58 8-8V7zm-2 9c0 3.31-2.69 6-6 6-2.61 0-4.95-1.59-5.91-4.01l-2.6-6.54.53.14c.46.12.83.46 1 .9L7 15h2V4.5c0-.28.22-.5.5-.5s.5.22.5.5V12h2V2.5c0-.28.22-.5.5-.5s.5.22.5.5V12h2V4c0-.28.22-.5.5-.5s.5.22.5.5v8h2V7c0-.28.22-.5.5-.5s.5.22.5.5v9z"/></svg>

<svg width="24" height="24" viewBox="0 0 24 24" fill="none" xmlns="http://www.w3.org/2000/svg">
<path d="M21 7C21 5.62 19.88 4.5 18.5 4.5C18.33 4.5 18.16 4.52 18 4.55V4C18 2.62 16.88 1.5 15.5 1.5C15.27 1.5 15.04 1.53 14.83 1.59C14.46 0.66 13.56 0 12.5 0C11.27 0 10.25 0.89 10.04 2.06C9.87 2.02 9.69 2 9.5 2C8.12 2 7 3.12 7 4.5V10.39C6.66 10.08 6.24 9.85 5.78 9.73L5.01 9.52C4.18 9.29 3.31 9.61 2.82 10.35C2.44 10.92 2.42 11.66 2.67 12.3L5.23 18.73C6.49 21.91 9.57 24 13 24C17.42 24 21 20.42 21 16V7ZM19 16C19 19.31 16.31 22 13 22C10.39 22 8.05 20.41 7.09 17.99L4.49 11.45L5.02 11.59C5.48 11.71 5.85 12.05 6.02 12.49L7 15H9V4.5C9 4.22 9.22 4 9.5 4C9.78 4 10 4.22 10 4.5V12H12V2.5C12 2.22 12.22 2 12.5 2C12.78 2 13 2.22 13 2.5V12H15V4C15 3.72 15.22 3.5 15.5 3.5C15.78 3.5 16 3.72 16 4V12H18V7C18 6.72 18.22 6.5 18.5 6.5C18.78 6.5 19 6.72 19 7V16Z"/>
</svg>
